img/icon-github-issue-2.svg

<svg fill="none" height="14" viewBox="0 0 15 14" width="15" xmlns="http://www.w3.org/2000/svg" xmlns:xlink="http://www.w3.org/1999/xlink"><clipPath id="a"><path d="m.273438.001953h14v14h-14z"/></clipPath><g clip-path="url(#a)"><path clip-rule="evenodd" d="m7.27344 1.30195c3.13996 0 5.69996 2.56 5.69996 5.7 0 3.14005-2.56 5.70005-5.69996 5.70005-1.51092-.0027-2.95921-.6041-4.02759-1.6725-1.06839-1.06834-1.66977-2.51663-1.67241-4.02755 0-3.14 2.56-5.7 5.7-5.7zm0-1.29999688c-3.86 0-7.000002 3.13999688-7.000002 6.99999688 0 3.86005 3.140002 7.00005 7.000002 7.00005 3.85996 0 6.99996-3.14 6.99996-7.00005 0-3.86-3.14-6.99999688-6.99996-6.99999688zm1 2.99999688h-2v5h2zm0 6h-2v2.00005h2z" fill="#000" fill-rule="evenodd"/></g></svg>

<svg width="15" height="14" viewBox="0 0 15 14" fill="none" xmlns="http://www.w3.org/2000/svg">
<g clip-path="url(#clip0_3473_4150)">
<path fill-rule="evenodd" clip-rule="evenodd" d="M7.27344 1.30195C10.4134 1.30195 12.9734 3.86195 12.9734 7.00195C12.9734 10.142 10.4134 12.702 7.27344 12.702C5.76252 12.6993 4.31423 12.0979 3.24585 11.0295C2.17746 9.96116 1.57608 8.51287 1.57344 7.00195C1.57344 3.86195 4.13344 1.30195 7.27344 1.30195ZM7.27344 0.00195312C3.41344 0.00195312 0.273438 3.14195 0.273438 7.00195C0.273438 10.862 3.41344 14.002 7.27344 14.002C11.1334 14.002 14.2734 10.862 14.2734 7.00195C14.2734 3.14195 11.1334 0.00195312 7.27344 0.00195312ZM8.27344 3.00195H6.27344V8.00195H8.27344V3.00195ZM8.27344 9.00195H6.27344V11.002H8.27344V9.00195Z" fill="black"/>
</g>
<defs>
<clipPath id="clip0_3473_4150">
<rect width="14" height="14" fill="white" transform="translate(0.273438 0.00195312)"/>
</clipPath>
</defs>
</svg>
